!!!COM: Louise Reichardt
!!!CNT: Deutsch
!!!TXO: Deutsch
!!!OTL: Vaters Klage
!!!LYR: Elwert
!!!OPR: Zwo2lf Gesa2nge
!!!OPS: No opus information available
!!!ONM: No. 4
!!!ENC: Ben Fuhrman
!!!YOR: Zwo2lf Gesa2nge
!!!YOR: Hamburg, J.A. Bo2hme, no date - suspected 1811
!!!YOR: IMSLP http://imslp.org/wiki/12_Ges%C3%A4nge_%28Reichardt,_Louise%29
!!!ODT: 1811
!!NB: Only vocal melody encoded.
!!NB: First instance of melodic material only encoded.
!!created: 2/17/10 12:18PM
!!proofed and posted: 2/17/10 12:18PM
**kern	**silbe
*clef G2	*
*k[b-e-]	*
*M6/8	*
*MM[Sanft klagend]	*
{8d	{Es
=1	=1
8b-	ste-
8a	-hen
8g	drei
8b-	Stern'
8a	|
8g	am
=2	=2
4.a	Him
4d	-mel,
8dd	die
=3	=3
4dd	bli-
8g	-cken
8g	trau-
8f#	-rig
8g	her-
=4	=4
4.a}	-ab;}
4r	.
{8a	{zu
=5	=5
4b-	Ber-
8b-	-koch
4a	an
8a	der
=6	=6
4.cc	Kir-
4b-	-che,
8b-	da
=7	=7
4a-	ist
8a-	ein
8cc	neu-
8b-	|
8a-	-ge-
=8	=8
4g	-mach-
8f#	-tes
4g}	Grab.}
8r	.
==	==
*-	*-
